X: 195
T: Song in Honor of Gabriel Renville (b)
C: Teton Sioux band 1911-1914
N: Derived from sioux190.krn
O: South Dakota, U.S.A.
N: Teton Sioux Music by Frances Densmore, 1918
Z: transcribed to **kern format by Craig Sapp
L: 1/8
M: 2/4
Q: 1/4=58
K: Ab clef=bass
%%linebreak <none>
F2F2 [I:setbarnb 2]| 
C4 | 
C2F2 | 
F< C B, B, | 
C< B, B, A,3// A,// | 
F,2F, F, | 
(F,4 | 
F,2)A, A, ||  
[M:3/4]B,2B,< A, A,/< F,/ A,/ A,/ ||  
[M:2/4]F,2F, F, | 
F,4- ||  
[M:3/4]F,4F,3/ F,/ ||  
[M:2/4]C2B,/ C3/ | 
C4 ||  
[M:3/4]C2(F> C) C/ C3/ | 
B, B, (3:2:4C B, B,/ B,/ A,3/ A,/ ||  
[M:2/4]F,2F, F, | 
F,4- | 
F,2A,3/ A,/ ||  
[M:3/4]B,2B,< A, (3:2:1(A,/ F,) (3:2:2A,/ A,/ ||  
[M:2/4](A,< F,) F, F, | 
F,4 |]  



